X:1
T:I Am So Glad Salvation’s Free
T:I Am So Glad Salvation’s Free
T:James Edmond Thomas
T:James Rowe, 1908
T:Musi Courtesy of the Cyber Hymnal™
T:Musi Courtesy of the Cyber Hymnal™
C:James Edmond Thomas
Z:Musi
Z:Courtesy of the Cyber Hymnal™
%%score ( 1 2 ) ( 3 4 )
L:1/8
Q:1/4=113
M:6/8
K:F
V:1 treble 
V:2 treble 
V:3 bass 
V:4 bass 
V:1
 C[CD][CE] [CF]2 [CG] | [FA]2 [FG] [CF]2 [CF] | [DF]2 [B,D] [DF]2 [DG] | [DF]3 C2 z | %4
w: 1.~I am so glad sal-|va- tion’s free to|all who will re-|ceive it,|
w: 2.~I am so glad that|I can tell to|way- ward souls the|sto- ry,|
w: 3.~I am so glad that|all my heart to|Je- sus I have|giv- en,|
 C[CD][CE] [CF]2 [CG] | [FA]2 [FG] [CF]2 [FA] | [EG]2 [Ec] [Fd]2 [Ge] | [Ec]3- [Ec]2 z | %8
w: Glad that the news was|brought to me when|I was lost and|sad; *|
w: Glad that by grace from|day to day a|help- er I may|be; *|
w: Glad that at ev- en-|tide my soul true|sheaves to Him may|bring; *|
 C[CD][CE] [CF]2 [CG] | [FA]2 [FG] [CF]2 [CF] | [DF]2 [B,D] [DF]2 [DG] | [CF]3 C2 z | %12
w: Praise His dear name, I|can pro- claim that|tru- ly I be-|lieve it,|
w: Find- ing de- light in|serv- ice true, my|soul is win- ning|glo- ry,|
w: I will be true un-|til with all the|hap- py throng in|Heav- en,|
 C[CD][CE] [CF]2 [CG] | [FA]2 [FB] [Fc]2 [Fd] | [FA]3 [CG]3 | [CF]3- [CF]2 z ||"^Refrain" f3 c3 | %17
w: For I am now His|child, I know, and|I’m so|glad. *||
w: Glo- ry for Him who|gave His life to|res- cue|me. *|Glo- ry,|
w: Sweet- er and no- bler|praise I give to|Christ, my|king. *||
 A3 F3 | [DG][DF][B,D] [DF]2 [DG] | [CF]3 C2 z | C[CD][CE] [CF]2 [CG] | [FA]2 [Fc] [Fd]2 [Fc] | %22
w: |||||
w: hon- or|be to His name for-|ev- er,|Nev- er a great- er|friend the sin- ful|
w: |||||
 [Ge]3 [Fd]3 | (z de [Ec]2) z | f3 c3 | A3 F3 | [DG][DF][B,D] [DF]2 [DG] | [CF]3 C2 z | %28
w: ||||||
w: race has|||had; Love|Him, praise Him, Je- sus,|the match-|
w: ||||||
 C[CD][CE] [CF]2 [CG] | [FA]2 [FB] [Fc]2 [Fd] | [FA]3 [CG]3 | [CF]6 |] %32
w: ||||
w: less Sav- ior, He has|re- deemed this soul|of mine,|and|
w: ||||
V:2
 C x5 | x6 | x6 | x3 C2 x | C x5 | x6 | x6 | x6 | C x5 | x6 | x6 | x3 C2 x | C x5 | x6 | x6 | x6 || %16
 (AAG) (F2 F) | (FFF) (C2 C) | x6 | x3 C2 x | C x5 | x6 | x6 | [Ec]3- x3 | (AAG) (F2 F) | %25
 (FED) (C2 ^C) | x6 | x3 C2 x | C x5 | x6 | x6 | x6 |] %32
V:3
 [F,A,][F,B,][F,C] [F,A,]2 [F,B,] | [F,C]2 [F,B,] [F,A,]2 [F,A,] | %2
w: ~ ~ ~ ~ ~|~ ~ ~ ~|
 [B,,B,]2 [B,,F,] [B,,B,]2 [B,,B,] | [F,A,]3 [F,A,]2 z | [F,A,][F,B,][F,C] [F,A,]2 [F,B,] | %5
w: ~ ~ ~ ~|~ ~|~ ~ ~ ~ ~|
 [F,C]2 [F,B,] [F,A,]2 [F,C] | [G,C]2 [G,C] [G,=B,]2 [G,B,] | [C,C]3- [C,C]2 z | %8
w: ~ ~ ~ ~|~ ~ ~ ~|~ *|
 [F,A,][F,B,][F,C] [F,A,]2 [F,B,] | [F,C]2 [F,B,] [F,A,]2 [F,A,] | %10
w: ~ ~ ~ ~ ~|~ ~ ~ ~|
 [B,,B,]2 [B,,F,] [B,,B,]2 [B,,B,] | [F,A,]3 [F,A,]2 z | [F,A,][F,B,][F,C] [F,A,]2 [F,B,] | %13
w: ~ ~ ~ ~|~ ~|~ ~ ~ ~ ~|
 [F,C]2 [D,B,] [A,,A,]2 [B,,G,] | [C,F,]3 [C,B,]3 | [F,A,]3- [F,A,]2 z || %16
w: ~ ~ ~ ~|~ ~|~ *|
 [F,C][F,C][F,B,] [F,A,]2 [F,A,] | [F,C][F,C][F,C] [F,A,]2 [F,A,] | %18
w: Glo- ry to Je- sus,|glo- ry and hon- or,|
 [B,,B,][B,,B,][B,,F,] [B,,B,]2 [B,,B,] | [F,A,]3 [F,A,]2 z | [F,A,][F,B,][F,C] [F,A,]2 [F,B,] | %21
w: ~ ~ ~ ~ ~|~ ~|~ ~ ~ ~ ~|
 [F,C]2 [F,A,] [F,B,]2 [A,C] | [G,C]3 [G,=B,]3 | (z D,E, [C,C]2) z | %24
w: ~ ~ ~ ~|~ ~||
 [F,C][F,C][F,B,] [F,A,]2 [F,A,] | [F,C][F,C][F,B,] [F,A,]2 [F,A,] | %26
w: * ~ Love Him and|serve Him, Love Him and|
 [B,,B,][B,,B,][B,,F,] [B,,B,]2 [B,,B,] | [F,A,]3 [F,A,]2 z | [F,A,][F,B,][F,C] [F,A,]2 [F,B,] | %29
w: praise Him, * * *|||
 [F,C]2 [D,B,] [A,,A,]2 [B,,G,] | [C,F,]3 [C,B,]3 | [F,A,]6 |] %32
w: |||
V:4
 x6 | x6 | x6 | x6 | x6 | x6 | x6 | x6 | x6 | x6 | x6 | x6 | x6 | x6 | x6 | x6 || x6 | x6 | x6 | %19
 x6 | x6 | x6 | x6 | [C,C]3- x3 | x6 | x6 | x6 | x6 | x6 | x6 | x6 | x6 |] %32

